X:2
T:Dobbin's Flowery Vale
T:Drogheda Lasses, The
R:reel
M:4/4
L:1/8
K:G % transposed from Eb
&quot;variation 1&quot;\
B2GB EBGB|A2FA DAFA|B2GB EBGA|(3B^cd ef gfed|
B2GB EBGB|A2FA DAFA|BAGF EFGA|(3B^cd ed (3Bcd ef|]
g2gf gfed|BdAc Bdef|g2gf gfed|BdAc BEef|
gbaf gfed|B2AB GAFG|EDEF ~G2GA|AGdB gfed|]
&quot;variation 2&quot;\
B2GB EBGB|A2FA DAFA|B2GB EBGA|(3B^cd ef gfed|
B2GB dBG2|A2FA dAF2|BAGF EFGF|EFGA (3Bcd ef|]
g2gf gfed|BdAc Bdef|g2gf gfed|BdAc BEef|
gbaf gfed|B2AB GAFG|EDEF ~G2GA|AGdB gfed|]
</abc>
